assets/icons/24px/stroke/iphone-24px.svg

<svg width="24" height="24" viewBox="0 0 24 24" fill="none" xmlns="http://www.w3.org/2000/svg">
<path fill-rule="evenodd" clip-rule="evenodd" d="M9.93417 2C9.95604 2 9.97799 2 10 2L14.0658 2C14.9523 1.99995 15.7161 1.99991 16.3278 2.08215C16.9833 2.17028 17.6117 2.36902 18.1213 2.87868C18.631 3.38835 18.8297 4.0167 18.9179 4.67221C19.0001 5.28387 19.0001 6.04769 19 6.93417V17.0658C19.0001 17.9523 19.0001 18.7161 18.9179 19.3278C18.8297 19.9833 18.631 20.6117 18.1213 21.1213C17.6117 21.631 16.9833 21.8297 16.3278 21.9179C15.7161 22.0001 14.9523 22.0001 14.0658 22H9.9342C9.0477 22.0001 8.28388 22.0001 7.67221 21.9179C7.0167 21.8297 6.38835 21.631 5.87868 21.1213C5.36902 20.6117 5.17028 19.9833 5.08215 19.3278C4.99991 18.7161 4.99995 17.9523 5 17.0658L5 7C5 6.97799 5 6.95604 5 6.93417C4.99995 6.04769 4.99991 5.28387 5.08215 4.67221C5.17028 4.0167 5.36902 3.38835 5.87868 2.87868C6.38835 2.36902 7.0167 2.17028 7.67221 2.08215C8.28387 1.99991 9.04769 1.99995 9.93417 2ZM7.93871 4.06431C7.50497 4.12263 7.36902 4.21677 7.2929 4.2929C7.21677 4.36902 7.12263 4.50497 7.06431 4.93871C7.00213 5.40121 7 6.02893 7 7V17C7 17.9711 7.00213 18.5988 7.06431 19.0613C7.12263 19.495 7.21677 19.631 7.2929 19.7071C7.36902 19.7832 7.50497 19.8774 7.93871 19.9357C8.40121 19.9979 9.02893 20 10 20H14C14.9711 20 15.5988 19.9979 16.0613 19.9357C16.495 19.8774 16.631 19.7832 16.7071 19.7071C16.7832 19.631 16.8774 19.495 16.9357 19.0613C16.9979 18.5988 17 17.9711 17 17V7C17 6.02893 16.9979 5.40122 16.9357 4.93871C16.8774 4.50497 16.7832 4.36902 16.7071 4.2929C16.631 4.21677 16.495 4.12263 16.0613 4.06431C15.5988 4.00213 14.9711 4 14 4H10C9.02893 4 8.40122 4.00213 7.93871 4.06431Z" fill="white"/>
<path d="M10 5H14C14.5523 5 15 4.55228 15 4C15 3.44772 14.5523 3 14 3L10 3C9.44771 3 9 3.44772 9 4C9 4.55228 9.44772 5 10 5Z" fill="white"/>
<path fill-rule="evenodd" clip-rule="evenodd" d="M15.5 18C15.5 18.2761 15.2761 18.5 15 18.5H9C8.72386 18.5 8.5 18.2761 8.5 18C8.5 17.7239 8.72386 17.5 9 17.5H15C15.2761 17.5 15.5 17.7239 15.5 18Z" fill="white"/>
</svg>

<svg width="24" height="24" fill="none" xmlns="http://www.w3.org/2000/svg"><path fill-rule="evenodd" clip-rule="evenodd" d="M9.934 2h4.132c.886 0 1.65 0 2.262.082.655.088 1.284.287 1.793.797.51.51.709 1.138.797 1.793C19 5.284 19 6.048 19 6.934v10.132c0 .886 0 1.65-.082 2.262-.088.655-.287 1.284-.797 1.793-.51.51-1.138.709-1.793.797-.612.082-1.376.082-2.262.082H9.934c-.886 0-1.65 0-2.262-.082-.655-.088-1.284-.287-1.793-.797-.51-.51-.709-1.138-.797-1.793C5 18.716 5 17.952 5 17.066V7v-.066c0-.886 0-1.65.082-2.262.088-.655.287-1.284.797-1.793.51-.51 1.138-.709 1.793-.797C8.284 2 9.048 2 9.934 2zM7.94 4.064c-.434.059-.57.153-.646.229-.076.076-.17.212-.229.646C7.002 5.4 7 6.029 7 7v10c0 .971.002 1.599.064 2.061.059.434.153.57.229.646.076.076.212.17.646.229C8.4 19.998 9.029 20 10 20h4c.971 0 1.599-.002 2.061-.064.434-.059.57-.153.646-.229.076-.076.17-.212.229-.646.062-.462.064-1.09.064-2.061V7c0-.971-.002-1.599-.064-2.061-.059-.434-.153-.57-.229-.646-.076-.076-.212-.17-.646-.229C15.6 4.002 14.971 4 14 4h-4c-.971 0-1.599.002-2.061.064z" fill="#fff"/><path d="M10 5h4a1 1 0 1 0 0-2h-4a1 1 0 1 0 0 2z" fill="#fff"/><path fill-rule="evenodd" clip-rule="evenodd" d="M15.5 18a.5.5 0 0 1-.5.5H9a.5.5 0 0 1 0-1h6a.5.5 0 0 1 .5.5z" fill="#fff"/></svg>
